Newaita-dark/emblems/48/emblem-encrypted-unlocked.svg

<svg height="48" viewBox="0 0 48 48" width="48" xmlns="http://www.w3.org/2000/svg"><path d="m254.017409 233.498837c52.744963 0 95.240905-40.121168 95.240905-89.949743 0-42.954232-31.580317-78.700818-74.076259-87.741621v-192.731596c0-11.707215-9.45743-21.164645-21.164646-21.164645-11.748878 0-21.164645 9.45743-21.164645 21.164645v10.582323h-31.788631c-11.707216 0-21.164646 8.915815-21.164646 19.914765v2.499761c0 11.040613 9.45743 19.914765 21.164646 19.914765h31.788631v52.911614h-10.582323c-11.748878 0-21.206308 8.915815-21.206308 19.956428v2.458098c0 11.040613 9.45743 19.956428 21.206308 19.956428h10.582323v44.537414c-42.537605 9.040803-74.117922 44.787389-74.117922 87.741621 0 49.828575 42.495941 89.949743 95.282567 89.949743zm0-42.329291c-29.330532 0-52.953276-20.956332-52.953276-46.995512v-1.249881c0-26.03918 23.622744-46.995512 52.953276-46.995512 29.28887 0 52.911614 20.956332 52.911614 46.995512v1.249881c0 26.03918-23.622744 46.995512-52.911614 46.995512zm0 0" fill="none" stroke="#424242" stroke-linecap="round" stroke-linejoin="round" stroke-width="82" transform="matrix(.093759 0 0 .093759 0 20.158175)"/><path d="m23.816406 42.050781c4.945313 0 8.929688-3.761719 8.929688-8.433593 0-4.027344-2.960938-7.378907-6.945313-8.226563v-18.070313c0-1.097656-.886719-1.984374-1.984375-1.984374-1.101562 0-1.984375.886718-1.984375 1.984374v.992188h-2.980469c-1.097656 0-1.984374.835938-1.984374 1.867188v.234374c0 1.035157.886718 1.867188 1.984374 1.867188h2.980469v4.960938h-.992187c-1.101563 0-1.988282.835937-1.988282 1.871093v.230469c0 1.035156.886719 1.871094 1.988282 1.871094h.992187v4.175781c-3.988281.847656-6.949219 4.199219-6.949219 8.226563 0 4.671874 3.984376 8.433593 8.933594 8.433593zm0-3.96875c-2.75 0-4.964844-1.964843-4.964844-4.40625v-.117187c0-2.441406 2.214844-4.40625 4.964844-4.40625 2.746094 0 4.960938 1.964844 4.960938 4.40625v.117187c0 2.441407-2.214844 4.40625-4.960938 4.40625zm0 0" fill="#fafafa"/></svg>

<?xml version="1.0" encoding="UTF-8"?>
<svg xmlns="http://www.w3.org/2000/svg" xmlns:xlink="http://www.w3.org/1999/xlink" width="48px" height="48px" viewBox="0 0 48 48" version="1.1">
<g id="surface1">
<path style="fill:none;stroke-width:82;stroke-linecap:round;stroke-linejoin:round;stroke:rgb(25.882354%,25.882354%,25.882354%);stroke-opacity:1;stroke-miterlimit:4;" d="M 254.017409 233.498837 C 306.762372 233.498837 349.258314 193.377669 349.258314 143.549094 C 349.258314 100.594862 317.677997 64.848276 275.182055 55.807473 L 275.182055 -136.924123 C 275.182055 -148.631338 265.724625 -158.088768 254.017409 -158.088768 C 242.268531 -158.088768 232.852764 -148.631338 232.852764 -136.924123 L 232.852764 -126.3418 L 201.064133 -126.3418 C 189.356917 -126.3418 179.899487 -117.425985 179.899487 -106.427035 L 179.899487 -103.927274 C 179.899487 -92.886661 189.356917 -84.012509 201.064133 -84.012509 L 232.852764 -84.012509 L 232.852764 -31.100895 L 222.270441 -31.100895 C 210.521563 -31.100895 201.064133 -22.18508 201.064133 -11.144467 L 201.064133 -8.686369 C 201.064133 2.354244 210.521563 11.270059 222.270441 11.270059 L 232.852764 11.270059 L 232.852764 55.807473 C 190.315159 64.848276 158.734842 100.594862 158.734842 143.549094 C 158.734842 193.377669 201.230783 233.498837 254.017409 233.498837 Z M 254.017409 191.169546 C 224.686877 191.169546 201.064133 170.213214 201.064133 144.174034 L 201.064133 142.924153 C 201.064133 116.884973 224.686877 95.928641 254.017409 95.928641 C 283.306279 95.928641 306.929023 116.884973 306.929023 142.924153 L 306.929023 144.174034 C 306.929023 170.213214 283.306279 191.169546 254.017409 191.169546 Z M 254.017409 191.169546 " transform="matrix(0.093759,0,0,0.093759,0,20.158175)"/>
<path style=" stroke:none;fill-rule:nonzero;fill:rgb(98.039216%,98.039216%,98.039216%);fill-opacity:1;" d="M 23.816406 42.050781 C 28.761719 42.050781 32.746094 38.289062 32.746094 33.617188 C 32.746094 29.589844 29.785156 26.238281 25.800781 25.390625 L 25.800781 7.320312 C 25.800781 6.222656 24.914062 5.335938 23.816406 5.335938 C 22.714844 5.335938 21.832031 6.222656 21.832031 7.320312 L 21.832031 8.3125 L 18.851562 8.3125 C 17.753906 8.3125 16.867188 9.148438 16.867188 10.179688 L 16.867188 10.414062 C 16.867188 11.449219 17.753906 12.28125 18.851562 12.28125 L 21.832031 12.28125 L 21.832031 17.242188 L 20.839844 17.242188 C 19.738281 17.242188 18.851562 18.078125 18.851562 19.113281 L 18.851562 19.34375 C 18.851562 20.378906 19.738281 21.214844 20.839844 21.214844 L 21.832031 21.214844 L 21.832031 25.390625 C 17.84375 26.238281 14.882812 29.589844 14.882812 33.617188 C 14.882812 38.289062 18.867188 42.050781 23.816406 42.050781 Z M 23.816406 38.082031 C 21.066406 38.082031 18.851562 36.117188 18.851562 33.675781 L 18.851562 33.558594 C 18.851562 31.117188 21.066406 29.152344 23.816406 29.152344 C 26.5625 29.152344 28.777344 31.117188 28.777344 33.558594 L 28.777344 33.675781 C 28.777344 36.117188 26.5625 38.082031 23.816406 38.082031 Z M 23.816406 38.082031 "/>
</g>
</svg>
